src/assets/icons/envelope.svg

<svg width="14" height="14" viewBox="0 0 14 14" fill="none" xmlns="http://www.w3.org/2000/svg">
<g id="envelope">
<g clip-path="url(#clip0_156_4509)">
<path id="Vector" fill-rule="evenodd" clip-rule="evenodd" d="M1.20017 2.20008C1.20017 2.08963 1.28971 2.00009 1.40017 2.00009H12.6C12.7104 2.00009 12.8 2.08963 12.8 2.20008V3.42924L7.00006 6.32919L1.20017 3.42924V2.20008ZM0.000192479 3.78706C1.69209e-05 3.79542 1.75207e-05 3.80378 0.000192479 3.81212V11.7999C0.000192479 12.5731 0.626982 13.1999 1.40017 13.1999H12.6C13.3731 13.1999 13.9999 12.5731 13.9999 11.7999V3.81212C14.0001 3.80378 14.0001 3.79542 13.9999 3.78706V2.20008C13.9999 1.4269 13.3731 0.80011 12.6 0.80011H1.40017C0.626982 0.80011 0.000192479 1.4269 0.000192479 2.20008V3.78706ZM12.8 4.77086V11.7999C12.8 11.9104 12.7104 11.9999 12.6 11.9999H1.40017C1.28971 11.9999 1.20017 11.9104 1.20017 11.7999V4.77086L6.73174 7.53664C6.90065 7.6211 7.09947 7.6211 7.26838 7.53664L12.8 4.77086Z" fill="black"/>
</g>
</g>
<defs>
<clipPath id="clip0_156_4509">
<rect width="14" height="14" fill="white"/>
</clipPath>
</defs>
</svg>

<svg xmlns="http://www.w3.org/2000/svg" fill="none" viewBox="0 0 14 14"><g clip-path="url(#a)"><path fill="#000" fill-rule="evenodd" d="M1.2 2.2c0-.11.09-.2.2-.2h11.2c.11 0 .2.09.2.2v1.23L7 6.33l-5.8-2.9zM0 3.787V11.8a1.4 1.4 0 0 0 1.4 1.4h11.2a1.4 1.4 0 0 0 1.4-1.4V2.2A1.4 1.4 0 0 0 12.6.8H1.4A1.4 1.4 0 0 0 0 2.2zm12.8.984V11.8a.2.2 0 0 1-.2.2H1.4a.2.2 0 0 1-.2-.2V4.77l5.532 2.767a.6.6 0 0 0 .536 0z" clip-rule="evenodd"/></g><defs><clipPath id="a"><path fill="#fff" d="M0 0h14v14H0z"/></clipPath></defs></svg>
